**kern	**silbe	**kern	**silbe	**harmony	**phrase	**leadinstrument	**rhyme	**timestamp	**harte
*ICvox	*	*ICvox	*	*M4/4	*	*	*	*	*M4/4
*VRlead	*	*VRbacking	*	*	*	*	*	*	*
*Hstimme	*	*Nstimme	*	*	*	*	*	*	*
*F:	*	*F:	*	*F:	*	*	*	*	*F:
*M4/4	*	*M4/4	*	*	*	*	*	*	*
*clefG2	*	*clefG2	*	*	*	*	*	*	*
r;	.	r;	.	1r;	.	r	.	0	N.C.
=1	=1	=1	=1	=1	=1	=1	=1	=1	=1
*>Letter>D	*>Letter>D	*>Letter>D	*>Letter>D	*>Letter>D	*>Letter>D	*>Letter>D	*>Letter>D	*>Letter>D	*>Letter>D
*>Label>Intro	*>Label>Intro	*>Label>Intro	*>Label>Intro	*>Label>Intro	*>Label>Intro	*>Label>Intro	*>Label>Intro	*>Label>Intro	*>Label>Intro
1r	.	1r	.	4FM	newline	piano	.	0.232	F:maj
.	.	.	.	4CM	.	piano	.	1.199	C:maj/3
.	.	.	.	4Dm	.	piano	.	2.166	D:min
.	.	.	.	4Dm	.	piano	.	3.132	D:min/b7
=2	=2	=2	=2	=2	=2	=2	=2	=2	=2
1r	.	1r	.	4B-M	.	piano	.	4.099	B-:maj
.	.	.	.	4CM	.	piano	.	5.066	C:maj
.	.	.	.	2FM	.	piano	.	6.032	F:maj
=3	=3	=3	=3	=3	=3	=3	=3	=3	=3
*>Letter>B	*>Letter>B	*>Letter>B	*>Letter>B	*>Letter>B	*>Letter>B	*>Letter>B	*>Letter>B	*>Letter>B	*>Letter>B
*>Label>Verse	*>Label>Verse	*>Label>Verse	*>Label>Verse	*>Label>Verse	*>Label>Verse	*>Label>Verse	*>Label>Verse	*>Label>Verse	*>Label>Verse
16G	When	1r	.	4Gmm	newline	voice	.	7.966	G:min7
8G	are	.	.	.	.	.	.	.	.
16G	you	.	.	.	.	.	.	.	.
16B-	gon-	.	.	4B-M	.	voice	.	8.947	B-:maj
16B-	-na	.	.	.	.	.	.	.	.
8d	come	.	.	.	.	.	.	.	.
4e	down	.	.	2CM	.	voice	.	9.928	C:maj
4r	.	.	.	.	.	.	.	.	.
=4	=4	=4	=4	=4	=4	=4	=4	=4	=4
16A	When	1r	.	4FM	.	voice	.	11.89	F:maj
8A	are	.	.	.	.	.	.	.	.
16A	you	.	.	.	.	.	.	.	.
16c	go-	.	.	4FM	.	voice	.	12.871	F:maj/3
16c	-ing	.	.	.	.	.	.	.	.
16c	to	.	.	.	.	.	.	.	.
[16d	land	.	.	.	.	.	A	.	.
4d]	_	.	.	2B-M	.	voice	.	13.852	B-:maj
8r	.	.	.	.	.	.	.	.	.
16r	.	.	.	.	.	.	.	.	.
16F	I	.	.	.	.	.	.	.	.
=5	=5	=5	=5	=5	=5	=5	=5	=5	=5
16G	should	1r	.	2E-M	newline	voice	.	15.814	E-:maj
8G	have	.	.	.	.	.	.	.	.
[16B-	stayed	.	.	.	.	.	.	.	.
16B-]	_	.	.	.	.	.	.	.	.
16B-	on	.	.	.	.	.	.	.	.
16B-	the	.	.	.	.	.	.	.	.
[16c	farm	.	.	.	.	.	.	.	.
8c]	_	.	.	2CMm	.	voice	.	17.799	C:7/3
16r	.	.	.	.	.	.	.	.	.
16A	I	.	.	.	.	.	.	.	.
16B-	should	.	.	.	.	.	.	.	.
8.G	have	.	.	.	.	.	.	.	.
=6	=6	=6	=6	=6	=6	=6	=6	=6	=6
16F	lis-	1r	.	1FM	.	voice	.	19.784	F:maj
16F	-tened	.	.	.	.	.	.	.	.
16F	to	.	.	.	.	.	.	.	.
[16A	my	.	.	.	.	.	.	.	.
16A]	_	.	.	.	.	.	.	.	.
16F	old	.	.	.	.	.	.	.	.
8f	man	.	.	.	.	.	A	.	.
4r	.	.	.	.	.	.	.	.	.
8r	.	.	.	.	.	.	.	.	.
16r	.	.	.	.	.	.	.	.	.
16d	You	.	.	.	.	.	.	.	.
=7	=7	=7	=7	=7	=7	=7	=7	=7	=7
16b-	know	1r	.	4Gmm	newline	voice	.	23.754	G:min7
16b-	you	.	.	.	.	.	.	.	.
16b-	can't	.	.	.	.	.	.	.	.
[16b-	hold	.	.	.	.	.	.	.	.
16b-]	_	.	.	4B-M	.	voice	.	24.736	B-:maj
16d	me	.	.	.	.	.	.	.	.
16d	fo-	.	.	.	.	.	.	.	.
[16d	-re-	.	.	.	.	.	.	.	.
16d]	_	.	.	2CM	.	voice	.	25.718	C:maj
8.e	-ver	.	.	.	.	.	.	.	.
8.r	.	.	.	.	.	.	.	.	.
16G	I	.	.	.	.	.	.	.	.
=8	=8	=8	=8	=8	=8	=8	=8	=8	=8
16A	did-	1r	.	4FM	.	voice	.	27.682	F:maj
16A	-n't	.	.	.	.	.	.	.	.
16A	sign	.	.	.	.	.	.	.	.
[16c	up	.	.	.	.	.	.	.	.
16c]	_	.	.	4FM	.	voice	.	28.664	F:maj/3
16c	with	.	.	.	.	.	.	.	.
[8d	you	.	.	.	.	.	B	.	.
8d]	_	.	.	2B-M	.	voice	.	29.646	B-:maj
8r	.	.	.	.	.	.	.	.	.
8.r	.	.	.	.	.	.	.	.	.
16E-	I'm	.	.	.	.	.	.	.	.
=9	=9	=9	=9	=9	=9	=9	=9	=9	=9
8G	not	1r	.	2E-M	newline	voice	.	31.61	E-:maj
16G	a	.	.	.	.	.	.	.	.
[16B-	pre-	.	.	.	.	.	.	.	.
16B-]	_	.	.	.	.	.	.	.	.
16B-	-sent	.	.	.	.	.	.	.	.
16B-	for	.	.	.	.	.	.	.	.
16B-	your	.	.	.	.	.	.	.	.
8c	friends	.	.	2CMm	.	voice	.	33.561	C:7/3
16d	to	.	.	.	.	.	.	.	.
[16c	o-	.	.	.	.	.	.	.	.
16c]	_	.	.	.	.	.	.	.	.
16G	-pen	.	.	.	.	.	.	.	.
16r	.	.	.	.	.	.	.	.	.
16E	This	.	.	.	.	.	.	.	.
=10	=10	=10	=10	=10	=10	=10	=10	=10	=10
8F	boy's	1r	.	1FM	.	voice	.	35.512	F:maj
16F	too	.	.	.	.	.	.	.	.
[16F	young	.	.	.	.	.	.	.	.
16F]	_	.	.	.	.	.	.	.	.
16G	to	.	.	.	.	.	.	.	.
8E	be	.	.	.	.	.	.	.	.
16F	sing-	.	.	.	.	.	.	.	.
8.A	-ing,	.	.	.	.	.	.	.	.
8r	.	.	.	.	.	.	.	.	.
8c	the	.	.	.	.	.	.	.	.
=11	=11	=11	=11	=11	=11	=11	=11	=11	=11
*>Letter>C	*>Letter>C	*>Letter>C	*>Letter>C	*>Letter>C	*>Letter>C	*>Letter>C	*>Letter>C	*>Letter>C	*>Letter>C
*>Label>Chorus	*>Label>Chorus	*>Label>Chorus	*>Label>Chorus	*>Label>Chorus	*>Label>Chorus	*>Label>Chorus	*>Label>Chorus	*>Label>Chorus	*>Label>Chorus
4dd-	blues	1r	.	2B-m	newline	voice	B	39.413	B-:min
4f	_	.	.	.	.	.	.	.	.
4.g	_	.	.	2E-M	.	voice	.	41.401	E-:maj
8r	.	.	.	.	.	.	.	.	.
=12	=12	=12	=12	=12	=12	=12	=12	=12	=12
1r	.	8.cc	Aah	2A-M	.	voice	.	43.389	A-:maj
.	.	16b-	_	.	.	.	.	.	.
.	.	8a-	_	.	.	.	.	.	.
.	.	8g	_	.	.	.	.	.	.
.	.	4f	_	2D-M	.	voice	.	45.377	D-:maj
.	.	4r	.	.	.	.	.	.	.
=13	=13	=13	=13	=13	=13	=13	=13	=13	=13
2r	.	4dd-	Aah	2B-m	newline	voice	.	47.365	B-:min
.	.	4f	_	.	.	.	.	.	.
4r	.	2g	_	2CMm	.	voice	.	49.345	C:7
8r	.	.	.	.	.	.	.	.	.
8c	So	.	.	.	.	.	.	.	.
=14	=14	=14	=14	=14	=14	=14	=14	=14	=14
*>Letter>D	*>Letter>D	*>Letter>D	*>Letter>D	*>Letter>D	*>Letter>D	*>Letter>D	*>Letter>D	*>Letter>D	*>Letter>D
*>Label>Chorus	*>Label>Chorus	*>Label>Chorus	*>Label>Chorus	*>Label>Chorus	*>Label>Chorus	*>Label>Chorus	*>Label>Chorus	*>Label>Chorus	*>Label>Chorus
16f	good-	2a	_	2FM	newline	voice	.	51.326	F:maj
8.f	-bye	.	.	.	.	.	.	.	.
16f	ye-	.	.	.	.	.	.	.	.
16c	-llow	.	.	.	.	.	.	.	.
8A	brick	.	.	.	.	.	.	.	.
4e	road	2r	.	2AMm	.	voice	.	53.284	A:7
8r	.	.	.	.	.	.	.	.	.
16c#	Where	.	.	.	.	.	.	.	.
16c#	the	.	.	.	.	.	.	.	.
=15	=15	=15	=15	=15	=15	=15	=15	=15	=15
16d	dogs	1r	.	2B-M	.	voice	.	55.242	B-:maj
8d	of	.	.	.	.	.	.	.	.
16c#	so-	.	.	.	.	.	.	.	.
16d	-ci-	.	.	.	.	.	.	.	.
16B-	-e-	.	.	.	.	.	.	.	.
16F	-ty	.	.	.	.	.	.	.	.
[16A	howl	.	.	.	.	.	C	.	.
4A]	_	.	.	2FM	.	voice	.	57.2	F:maj
8.r	.	.	.	.	.	.	.	.	.
16d	You	.	.	.	.	.	.	.	.
=16	=16	=16	=16	=16	=16	=16	=16	=16	=16
16a	can't	1r	.	2DMm	newline	voice	.	59.159	D:7
16r	.	.	.	.	.	.	.	.	.
16a	plant	.	.	.	.	.	.	.	.
16r	.	.	.	.	.	.	.	.	.
16a	me	.	.	.	.	.	.	.	.
16b-	in	.	.	.	.	.	.	.	.
16a	your	.	.	.	.	.	.	.	.
16g	pen-	.	.	.	.	.	.	.	.
16r	.	.	.	2Gmm	.	voice	.	61.109	G:min7
8.d	-thouse	.	.	.	.	.	.	.	.
8r	.	.	.	.	.	.	.	.	.
16r	.	.	.	.	.	.	.	.	.
16d	I'm	.	.	.	.	.	.	.	.
=17	=17	=17	=17	=17	=17	=17	=17	=17	=17
16e	go-	1r	.	2CM	.	voice	.	63.06	C:maj
8e	-ing	.	.	.	.	.	.	.	.
[16e	back	.	.	.	.	.	.	.	.
16e]	_	.	.	.	.	.	.	.	.
16f	to	.	.	.	.	.	.	.	.
8g	my	.	.	.	.	.	.	.	.
4f	plough	.	.	4FM	.	voice	C	65.01	F:maj
8r	.	.	.	4CM	.	voice	.	65.985	C:maj/3
16r	.	.	.	.	.	.	.	.	.
[16a	Back	.	.	.	.	.	.	.	.
=18	=18	=18	=18	=18	=18	=18	=18	=18	=18
16a]	_	1r	.	2Dmm	newline	voice	.	66.961	D:min7
8a	to	.	.	.	.	.	.	.	.
16a	the	.	.	.	.	.	.	.	.
16f	how-	.	.	.	.	.	C	.	.
16d	-ling	.	.	.	.	.	.	.	.
16A	old	.	.	.	.	.	.	.	.
[16e	owl	.	.	.	.	.	C	.	.
16e]	_	.	.	2AMm	.	voice	.	68.945	A:7
16e	in	.	.	.	.	.	.	.	.
16e	the	.	.	.	.	.	.	.	.
[16e	woods	.	.	.	.	.	.	.	.
16e]	_	.	.	.	.	.	.	.	.
16r	.	.	.	.	.	.	.	.	.
8r	.	.	.	.	.	.	.	.	.
=19	=19	=19	=19	=19	=19	=19	=19	=19	=19
*M2/4	*	*M2/4	*	*M2/4	*M2/4	*M2/4	*	*M2/4	*M2/4
16f	Hun-	2r	.	2B-M	.	voice	.	70.929	B-:maj
16f	-ting	.	.	.	.	.	.	.	.
16f	the	.	.	.	.	.	.	.	.
[16d	hor-	.	.	.	.	.	.	.	.
16d]	_	.	.	.	.	.	.	.	.
16B-	-ny	.	.	.	.	.	.	.	.
8F	back	.	.	.	.	.	.	.	.
=20	=20	=20	=20	=20	=20	=20	=20	=20	=20
*M4/4	*	*M4/4	*	*M4/4	*M4/4	*M4/4	*	*M4/4	*M4/4
4.A-	toad	1r	.	1D-M	.	voice	D	72.914	D-:maj
8r	.	.	.	.	.	.	.	.	.
4r	.	.	.	.	.	.	.	.	.
16A-	Oh	.	.	.	.	.	.	.	.
8G	I've	.	.	.	.	.	.	.	.
[16F	fina-	.	.	.	.	.	.	.	.
=21	=21	=21	=21	=21	=21	=21	=21	=21	=21
16F]	_	1r	.	4FM	newline	voice	.	76.883	F:maj
16F	-lly	.	.	.	.	.	.	.	.
16F	de-	.	.	.	.	.	.	.	.
[16A	-ci-	.	.	.	.	.	.	.	.
16A]	_	.	.	4CM	.	voice	.	77.871	C:maj/3
16A	-ded	.	.	.	.	.	.	.	.
8c	my	.	.	.	.	.	.	.	.
16f	fu-	.	.	4Dm	.	voice	.	78.859	D:min
16f	-ture	.	.	.	.	.	.	.	.
8f	life	.	.	.	.	.	.	.	.
8r	.	.	.	4Dm	.	voice	.	79.847	D:min/b7
16r	.	.	.	.	.	.	.	.	.
16d	Be-	.	.	.	.	.	.	.	.
=22	=22	=22	=22	=22	=22	=22	=22	=22	=22
*M2/4	*	*M2/4	*	*M2/4	*M2/4	*M2/4	*	*M2/4	*M2/4
8.f	-yond	2r	.	4B-M	.	voice	.	80.835	B-:maj
16f	the	.	.	.	.	.	.	.	.
16f	yel-	.	.	4CM	.	voice	.	81.823	C:maj
16g	-low	.	.	.	.	.	.	.	.
8e	brick	.	.	.	.	.	.	.	.
=23	=23	=23	=23	=23	=23	=23	=23	=23	=23
*>Letter>C	*>Letter>C	*>Letter>C	*>Letter>C	*>Letter>C	*>Letter>C	*>Letter>C	*>Letter>C	*>Letter>C	*>Letter>C
*>Label>Chorus	*>Label>Chorus	*>Label>Chorus	*>Label>Chorus	*>Label>Chorus	*>Label>Chorus	*>Label>Chorus	*>Label>Chorus	*>Label>Chorus	*>Label>Chorus
*	*	*	*	*M4/4	*M4/4	*M4/4	*	*M4/4	*M4/4
4f	road	4dd-	Aah	2B-m	newline	voice	D	82.811	B-:min
4r	.	4f	_	.	.	.	.	.	.
2r	.	4.g	_	2E-M	.	voice	.	84.806	E-:maj
.	.	8r	.	.	.	.	.	.	.
=24	=24	=24	=24	=24	=24	=24	=24	=24	=24
1r	.	8.cc	Aah	2A-M	.	voice	.	86.802	A-:maj
.	.	16b-	_	.	.	.	.	.	.
.	.	8a-	_	.	.	.	.	.	.
.	.	8g	_	.	.	.	.	.	.
.	.	4f	_	2D-M	.	voice	.	88.797	D-:maj
.	.	4r	.	.	.	.	.	.	.
=25	=25	=25	=25	=25	=25	=25	=25	=25	=25
1r	.	4dd-	Aah	2B-m	newline	voice	.	90.792	B-:min
.	.	4f	_	.	.	.	.	.	.
.	.	2g	_	2CMm	.	voice	.	92.769	C:7
=26	=26	=26	=26	=26	=26	=26	=26	=26	=26
1r	.	2a	Aah	1FM	.	voice	.	94.747	F:maj
.	.	2r	.	.	.	.	.	.	.
=27	=27	=27	=27	=27	=27	=27	=27	=27	=27
*>Letter>B	*>Letter>B	*>Letter>B	*>Letter>B	*>Letter>B	*>Letter>B	*>Letter>B	*>Letter>B	*>Letter>B	*>Letter>B
*>Label>Verse	*>Label>Verse	*>Label>Verse	*>Label>Verse	*>Label>Verse	*>Label>Verse	*>Label>Verse	*>Label>Verse	*>Label>Verse	*>Label>Verse
16G	What	1r	.	4Gmm	newline	voice	.	98.701	G:min7
8G	do	.	.	.	.	.	.	.	.
16G	you	.	.	.	.	.	.	.	.
8B-	think	.	.	4B-M	.	voice	.	99.711	B-:maj
16B-	you'll	.	.	.	.	.	.	.	.
[16e	do	.	.	.	.	.	.	.	.
16e]	then?	.	.	2CM	.	voice	.	100.722	C:maj
8.c	_	.	.	.	.	.	.	.	.
8r	.	.	.	.	.	.	.	.	.
16r	.	.	.	.	.	.	.	.	.
16F	I	.	.	.	.	.	.	.	.
=28	=28	=28	=28	=28	=28	=28	=28	=28	=28
16A	bet	1r	.	4FM	.	voice	.	102.743	F:maj
16A	that'll	.	.	.	.	.	.	.	.
16A	shoot	.	.	.	.	.	.	.	.
[16c	down	.	.	.	.	.	.	.	.
16c]	_	.	.	4FM	.	voice	.	103.754	F:maj/3
16c	the	.	.	.	.	.	.	.	.
[8d	pla-	.	.	.	.	.	(E	.	.
8d]	-ne	.	.	2B-M	.	voice	E)	104.765	B-:maj
8r	.	.	.	.	.	.	.	.	.
8r	.	.	.	.	.	.	.	.	.
16E-	It	.	.	.	.	.	.	.	.
16E-	will	.	.	.	.	.	.	.	.
=29	=29	=29	=29	=29	=29	=29	=29	=29	=29
16G	take	1r	.	2E-M	newline	voice	.	106.786	E-:maj
16G	you	.	.	.	.	.	.	.	.
16G	a	.	.	.	.	.	.	.	.
[16B-	cou-	.	.	.	.	.	.	.	.
16B-]	_	.	.	.	.	.	.	.	.
16B-	-ple	.	.	.	.	.	.	.	.
16B-	of	.	.	.	.	.	.	.	.
[16c	vod-	.	.	.	.	.	.	.	.
16c]	_	.	.	2CMm	.	voice	.	108.773	C:7/3
16c	-ka	.	.	.	.	.	.	.	.
16d	and	.	.	.	.	.	.	.	.
[16c	to-	.	.	.	.	.	.	.	.
16c]	_	.	.	.	.	.	.	.	.
16G	-nics	.	.	.	.	.	.	.	.
16r	.	.	.	.	.	.	.	.	.
16F	To	.	.	.	.	.	.	.	.
=30	=30	=30	=30	=30	=30	=30	=30	=30	=30
16F	set	1r	.	1FM	.	voice	.	110.76	F:maj
16F	you	.	.	.	.	.	.	.	.
16F	on	.	.	.	.	.	.	.	.
16F	your	.	.	.	.	.	.	.	.
16A	feet	.	.	.	.	.	.	.	.
16c	a-	.	.	.	.	.	.	.	.
[8f	-gain	.	.	.	.	.	E	.	.
8f]	_	.	.	.	.	.	.	.	.
8r	.	.	.	.	.	.	.	.	.
4r	.	.	.	.	.	.	.	.	.
=31	=31	=31	=31	=31	=31	=31	=31	=31	=31
16b-	May-	1r	.	4Gmm	newline	voice	.	114.734	G:min7
16b-	-be	.	.	.	.	.	.	.	.
16b-	you'll	.	.	.	.	.	.	.	.
[16b-	get	.	.	.	.	.	.	.	.
16b-]	_	.	.	4B-M	.	voice	.	115.732	B-:maj
16d	a	.	.	.	.	.	.	.	.
16d	rep-	.	.	.	.	.	.	.	.
[16d	-lace-	.	.	.	.	.	.	.	.
16d]	_	.	.	2CM	.	voice	.	116.729	C:maj
8.e	-ment	.	.	.	.	.	.	.	.
8.r	.	.	.	.	.	.	.	.	.
16G	There's	.	.	.	.	.	.	.	.
=32	=32	=32	=32	=32	=32	=32	=32	=32	=32
16A	plen-	1r	.	4FM	.	voice	.	118.724	F:maj
16A	-ty	.	.	.	.	.	.	.	.
16A	like	.	.	.	.	.	.	.	.
[16c	me	.	.	.	.	.	.	.	.
16c]	_	.	.	4FM	.	voice	.	119.722	F:maj/3
16c	to	.	.	.	.	.	.	.	.
16c	be	.	.	.	.	.	.	.	.
[16d	found	.	.	.	.	.	B	.	.
8d]	_	.	.	2B-M	.	voice	.	120.719	B-:maj
8r	.	.	.	.	.	.	.	.	.
4r	.	.	.	.	.	.	.	.	.
=33	=33	=33	=33	=33	=33	=33	=33	=33	=33
16G	Mon-	1r	.	2E-M	newline	voice	.	122.714	E-:maj
8.G	-grels	.	.	.	.	.	.	.	.
8r	.	.	.	.	.	.	.	.	.
16B-	who	.	.	.	.	.	.	.	.
[16c	ain't	.	.	.	.	.	.	.	.
16c]	_	.	.	2CMm	.	voice	.	124.711	C:7/3
16c	got	.	.	.	.	.	.	.	.
16d	a	.	.	.	.	.	.	.	.
[16c	pen-	.	.	.	.	.	.	.	.
16c]	_	.	.	.	.	.	.	.	.
16G	-ny	.	.	.	.	.	.	.	.
8r	.	.	.	.	.	.	.	.	.
=34	=34	=34	=34	=34	=34	=34	=34	=34	=34
16F	Snif-	1r	.	1FM	.	voice	.	126.708	F:maj
16F	-fing	.	.	.	.	.	.	.	.
16F	for	.	.	.	.	.	.	.	.
[16F	tid-	.	.	.	.	.	.	.	.
16F]	_	.	.	.	.	.	.	.	.
16G	-bits	.	.	.	.	.	.	.	.
8E	like	.	.	.	.	.	.	.	.
8F	you	.	.	.	.	.	.	.	.
8r	.	.	.	.	.	.	.	.	.
8A	on	.	.	.	.	.	.	.	.
8c	the	.	.	.	.	.	.	.	.
=35	=35	=35	=35	=35	=35	=35	=35	=35	=35
*>Letter>C	*>Letter>C	*>Letter>C	*>Letter>C	*>Letter>C	*>Letter>C	*>Letter>C	*>Letter>C	*>Letter>C	*>Letter>C
*>Label>Chorus	*>Label>Chorus	*>Label>Chorus	*>Label>Chorus	*>Label>Chorus	*>Label>Chorus	*>Label>Chorus	*>Label>Chorus	*>Label>Chorus	*>Label>Chorus
4dd-	ground	1r	.	2B-m	newline	voice	B	130.701	B-:min
4f	_	.	.	.	.	.	.	.	.
4.g	_	.	.	2E-M	.	voice	.	132.717	E-:maj
8r	.	.	.	.	.	.	.	.	.
=36	=36	=36	=36	=36	=36	=36	=36	=36	=36
1r	.	8.cc	Aah	2A-M	.	voice	.	134.733	A-:maj
.	.	16b-	_	.	.	.	.	.	.
.	.	8a-	_	.	.	.	.	.	.
.	.	8g	_	.	.	.	.	.	.
.	.	4f	_	2D-M	.	voice	.	136.748	D-:maj
.	.	4r	.	.	.	.	.	.	.
=37	=37	=37	=37	=37	=37	=37	=37	=37	=37
2r	.	4dd-	Aah	2B-m	newline	voice	.	138.764	B-:min
.	.	4f	_	.	.	.	.	.	.
4r	.	2g	_	2CMm	.	voice	.	140.785	C:7
8r	.	.	.	.	.	.	.	.	.
8c	So	.	.	.	.	.	.	.	.
=38	=38	=38	=38	=38	=38	=38	=38	=38	=38
*>Letter>D	*>Letter>D	*>Letter>D	*>Letter>D	*>Letter>D	*>Letter>D	*>Letter>D	*>Letter>D	*>Letter>D	*>Letter>D
*>Label>Chorus	*>Label>Chorus	*>Label>Chorus	*>Label>Chorus	*>Label>Chorus	*>Label>Chorus	*>Label>Chorus	*>Label>Chorus	*>Label>Chorus	*>Label>Chorus
16f	good-	2a	Aah	2FM	newline	voice	.	142.807	F:maj
8.f	-bye	.	.	.	.	.	.	.	.
16f	ye-	.	.	.	.	.	.	.	.
16c	-llow	.	.	.	.	.	.	.	.
8A	brick	.	.	.	.	.	.	.	.
4e	road	2r	.	2AMm	.	voice	.	144.786	A:7
8r	.	.	.	.	.	.	.	.	.
16c#	Where	.	.	.	.	.	.	.	.
16c#	the	.	.	.	.	.	.	.	.
=39	=39	=39	=39	=39	=39	=39	=39	=39	=39
16d	dogs	1r	.	2B-M	.	voice	.	146.765	B-:maj
8d	of	.	.	.	.	.	.	.	.
16c#	so-	.	.	.	.	.	.	.	.
16d	-ci-	.	.	.	.	.	.	.	.
16B-	-e-	.	.	.	.	.	.	.	.
16F	-ty	.	.	.	.	.	.	.	.
[16A	howl	.	.	.	.	.	C	.	.
4A]	_	.	.	2FM	.	voice	.	148.744	F:maj
8.r	.	.	.	.	.	.	.	.	.
16d	You	.	.	.	.	.	.	.	.
=40	=40	=40	=40	=40	=40	=40	=40	=40	=40
16a	can't	1r	.	2DMm	newline	voice	.	150.723	D:7
16r	.	.	.	.	.	.	.	.	.
16a	plant	.	.	.	.	.	.	.	.
16r	.	.	.	.	.	.	.	.	.
16a	me	.	.	.	.	.	.	.	.
16b-	in	.	.	.	.	.	.	.	.
16a	your	.	.	.	.	.	.	.	.
16g	pen-	.	.	.	.	.	.	.	.
16r	.	.	.	2Gmm	.	voice	.	152.701	G:min7
8.d	-thouse	.	.	.	.	.	.	.	.
8.r	.	.	.	.	.	.	.	.	.
16d	I'm	.	.	.	.	.	.	.	.
=41	=41	=41	=41	=41	=41	=41	=41	=41	=41
16e	go-	1r	.	2CM	.	voice	.	154.679	C:maj
8e	-ing	.	.	.	.	.	.	.	.
[16e	back	.	.	.	.	.	.	.	.
16e]	_	.	.	.	.	.	.	.	.
16f	to	.	.	.	.	.	.	.	.
8g	my	.	.	.	.	.	.	.	.
8f	plough	.	.	4FM	.	voice	C	156.657	F:maj
8r	.	.	.	.	.	.	.	.	.
8.r	.	.	.	4CM	.	voice	.	157.645	C:maj/3
[16a	Back	.	.	.	.	.	.	.	.
=42	=42	=42	=42	=42	=42	=42	=42	=42	=42
16a]	_	1r	.	2Dmm	newline	voice	.	158.634	D:min7
8a	to	.	.	.	.	.	.	.	.
16a	the	.	.	.	.	.	.	.	.
16f	how-	.	.	.	.	.	C	.	.
16d	-ling	.	.	.	.	.	.	.	.
16A	old	.	.	.	.	.	.	.	.
[16e	owl	.	.	.	.	.	C	.	.
16e]	_	.	.	2AMm	.	voice	.	160.61	A:7
16e	in	.	.	.	.	.	.	.	.
16e	the	.	.	.	.	.	.	.	.
[16e	woods	.	.	.	.	.	.	.	.
16e]	_	.	.	.	.	.	.	.	.
16r	.	.	.	.	.	.	.	.	.
8r	.	.	.	.	.	.	.	.	.
=43	=43	=43	=43	=43	=43	=43	=43	=43	=43
*M2/4	*	*M2/4	*	*M2/4	*M2/4	*M2/4	*	*M2/4	*M2/4
16f	Hun-	2r	.	2B-M	.	voice	.	162.585	B-:maj
16f	-ting	.	.	.	.	.	.	.	.
16f	the	.	.	.	.	.	.	.	.
[16d	hor-	.	.	.	.	.	.	.	.
16d]	_	.	.	.	.	.	.	.	.
16B-	-ny	.	.	.	.	.	.	.	.
8F	back	.	.	.	.	.	.	.	.
=44	=44	=44	=44	=44	=44	=44	=44	=44	=44
*M4/4	*	*M4/4	*	*M4/4	*M4/4	*M4/4	*	*M4/4	*M4/4
4.A-	toad	1r	.	1D-M	.	voice	D	164.56	D-:maj
8r	.	.	.	.	.	.	.	.	.
4r	.	.	.	.	.	.	.	.	.
16A-	Oh	.	.	.	.	.	.	.	.
8G	I've	.	.	.	.	.	.	.	.
[16F	fina-	.	.	.	.	.	.	.	.
=45	=45	=45	=45	=45	=45	=45	=45	=45	=45
16F]	_	1r	.	4FM	newline	voice	.	168.511	F:maj
16F	-lly	.	.	.	.	.	.	.	.
16F	de-	.	.	.	.	.	.	.	.
[16A	-ci-	.	.	.	.	.	.	.	.
16A]	_	.	.	4CM	.	voice	.	169.484	C:maj/3
16A	-ded	.	.	.	.	.	.	.	.
8c	my	.	.	.	.	.	.	.	.
16f	fu-	.	.	4Dm	.	voice	.	170.458	D:min
16f	-ture	.	.	.	.	.	.	.	.
8f	lies	.	.	.	.	.	.	.	.
8.r	.	.	.	4Dm	.	voice	.	171.432	D:min/b7
16d	Be-	.	.	.	.	.	.	.	.
=46	=46	=46	=46	=46	=46	=46	=46	=46	=46
*M2/4	*	*M2/4	*	*M2/4	*M2/4	*M2/4	*	*M2/4	*M2/4
8.f	-yond	2r	.	4B-M	.	voice	.	172.405	B-:maj
16f	the	.	.	.	.	.	.	.	.
16f	yel-	.	.	4CM	.	voice	.	173.379	C:maj
16g	-low	.	.	.	.	.	.	.	.
8e	brick	.	.	.	.	.	.	.	.
=47	=47	=47	=47	=47	=47	=47	=47	=47	=47
*>Letter>C	*>Letter>C	*>Letter>C	*>Letter>C	*>Letter>C	*>Letter>C	*>Letter>C	*>Letter>C	*>Letter>C	*>Letter>C
*>Label>Chorus	*>Label>Chorus	*>Label>Chorus	*>Label>Chorus	*>Label>Chorus	*>Label>Chorus	*>Label>Chorus	*>Label>Chorus	*>Label>Chorus	*>Label>Chorus
*	*	*	*	*M4/4	*M4/4	*M4/4	*	*M4/4	*M4/4
4f	road	4dd-	Aah	2B-m	newline	voice	D	174.353	B-:min
4r	.	4f	_	.	.	.	.	.	.
2r	.	4.g	_	2E-M	.	voice	.	176.349	E-:maj
.	.	8r	.	.	.	.	.	.	.
=48	=48	=48	=48	=48	=48	=48	=48	=48	=48
1r	.	8.cc	Aah	2A-M	.	voice	.	178.346	A-:maj
.	.	16b-	_	.	.	.	.	.	.
.	.	8a-	_	.	.	.	.	.	.
.	.	8g	_	.	.	.	.	.	.
.	.	4f	_	2D-M	.	voice	.	180.343	D-:maj
.	.	4r	.	.	.	.	.	.	.
=49	=49	=49	=49	=49	=49	=49	=49	=49	=49
1r	.	4dd-	Aah	2B-m	newline	voice	.	182.34	B-:min
.	.	4f	_	.	.	.	.	.	.
.	.	2g	_	2CMm	.	voice	.	184.318	C:7
=50	=50	=50	=50	=50	=50	=50	=50	=50	=50
1r	.	2a;	Aah	1FM	.	voice	.	186.296	F:maj
.	.	2r	.	.	.	.	.	.	.
r;	.	r;	.	1r;	.	r	.	192.726	N.C.
r;	.	r;	.	1r;	.	r	.	194.743	N.C.
*-	*-	*-	*-	*-	*-	*-	*-	*-	*-
!!!BillboardChartDate: 1973/11/03
!!!BillboardPeak: 2
!!!BillboardWeeksOnChart: 17
!!!COC: Elton John
!!!ENC: Nathaniel Condit-Schultz
!!!EST: Awating manual error checking and editing.
!!!OTL: Goodbye Yellow Brick Road
!!!RDF**chordsym: original McGill chord annotation + (implied pitch class set, with bass pitch in first position)
!!!RDF**harmony: **recip + pitch class of root + harmonic quality
!!!RDF**leadinstrument: original McGill primary instrumentation annotation
!!!RDF**phrase: newline = linebreak in original McGill transcription
!!!RDF**timestamp: McGill audio timestamp in seconds
!!!RDT: 2017/01/12/
!!!SampleActualRank: 40
!!!SampleID#: 0842
!!!SampleTargetRank: 38
